proprietary/assets/icons/gebouwen/lokaal-welzijnswerk.svg

<svg height="64" viewBox="0 0 64 64" width="64" xmlns="http://www.w3.org/2000/svg"><path d="m0 0h64v64h-64z" fill="none"/><path d="m61.2248 30.2057-28.4122-26.8856c-.4594-.4269-1.166-.4269-1.6253 0l-28.4121 26.8856c-.494.4595-.7752 1.1067-.7752 1.7847v1.7969c0 .6696.5374 1.2127 1.2 1.2127h4.8v25h48v-25h4.8c.6626 0 1.2-.5431 1.2-1.2128v-1.7969c0-.6779-.2813-1.3251-.7752-1.7846zm-28.6114 21.411c-.3811.1995-.8457.1995-1.2267 0-14.5081-7.5994-14.9208-21.249-8.7308-24.0001 6.2758-2.7894 9.3441 3.2077 9.3441 3.2077s3.0683-5.9971 9.3442-3.2077c6.19 2.751 5.7773 16.4007-8.7308 24.0001z"/></svg>

<?xml version="1.0" encoding="utf-8"?>
<!-- Generator: Adobe Illustrator 18.1.0, SVG Export Plug-In . SVG Version: 6.00 Build 0)  -->
<svg version="1.2" baseProfile="tiny" xmlns="http://www.w3.org/2000/svg" xmlns:xlink="http://www.w3.org/1999/xlink" x="0px"
	 y="0px" width="64px" height="64px" viewBox="0 0 64 64" xml:space="preserve">
<g id="_x36_4px_Boxes">
	<rect fill="none" width="64" height="64"/>
</g>
<g id="Production">
	<path d="M61.2248,30.2057L32.8126,3.3201c-0.4594-0.4269-1.166-0.4269-1.6253,0L2.7752,30.2057C2.2812,30.6652,2,31.3124,2,31.9904
		v1.7969C2,34.4569,2.5374,35,3.2,35H8v25h48V35h4.8c0.6626,0,1.2-0.5431,1.2-1.2128v-1.7969
		C62,31.3124,61.7187,30.6652,61.2248,30.2057z M32.6134,51.6167c-0.3811,0.1995-0.8457,0.1995-1.2267,0
		c-14.5081-7.5994-14.9208-21.249-8.7308-24.0001C28.9317,24.8272,32,30.8243,32,30.8243s3.0683-5.9971,9.3442-3.2077
		C47.5342,30.3676,47.1215,44.0173,32.6134,51.6167z"/>
</g>
</svg>
